Papirus/24x24/panel/firewall-applet-error.svg

<?xml version="1.0" encoding="UTF-8" standalone="no"?>
<svg xmlns:dc="http://purl.org/dc/elements/1.1/" xmlns:cc="http://creativecommons.org/ns#" xmlns:rdf="http://www.w3.org/1999/02/22-rdf-syntax-ns#" xmlns:svg="http://www.w3.org/2000/svg" xmlns="http://www.w3.org/2000/svg" id="svg2817" height="24" width="24" version="1.0">
    <metadata id="metadata57">
        <rdf:RDF>
            <cc:Work rdf:about="">
                <dc:format>
                    image/svg+xml
                </dc:format>
                <dc:type rdf:resource="http://purl.org/dc/dcmitype/StillImage"/>
                <dc:title/>
            </cc:Work>
        </rdf:RDF>
    </metadata>
    <g style="opacity:1;fill:#ffffff;fill-opacity:1" id="g4486" transform="matrix(0.04620599,0,0,0.04537505,3.8523816,3.9992596)">
        <path style="fill:#ffffff;fill-opacity:1" d="M 7.9238281,0.01367188 1.1542969,2 C 1.0619311,2.0319879 1,2.4741218 1,2.5703125 1,4.9423196 1.6393254,7.6849001 2.7539062,10.09375 3.6579727,12.047918 5.283939,14.654257 7.8945312,15.974609 7.9277534,15.991397 7.9636821,16 8,16 8.036318,16 8.072247,15.9914 8.1054688,15.97461 10.715922,14.653984 12.341843,12.047691 13.246094,10.09375 14.360628,7.6847186 15,4.9419566 15,2.5703125 15,2.4741218 14.938069,2.0319879 14.845703,2 L 8.0761719,0.01367188 c -0.049718,-0.01724173 -0.1026261,-0.01724173 -0.1523438,0 z m 0.03125,2.99414062 c 0.02841,-0.0097 0.059481,-0.0097 0.087891,0 L 11.912109,4.3261719 C 11.96489,4.3441651 12,4.3912052 12,4.4453125 12,5.7793626 11.634924,7.3226539 10.998047,8.6777344 10.481332,9.7768263 9.5522345,11.243476 8.0605469,11.986328 8.0415628,11.995771 8.0207531,12 8,12 7.9792469,12 7.9584372,11.995771 7.9394531,11.986328 6.4476863,11.243629 5.5185624,9.7769539 5.0019531,8.6777344 4.3650498,7.322756 4,5.7795668 4,4.4453125 4,4.3912052 4.0351102,4.3441651 4.0878906,4.3261719 L 7.9550781,3.0078125 Z" transform="matrix(21.642216,0,0,22.039563,3.1947875,-1.0885517e-6)" id="path4448"/>
    </g>
    <path style="opacity:1;fill:#5294e2;fill-opacity:1;stroke:none;stroke-width:1;stroke-linecap:butt;stroke-linejoin:miter;stroke-miterlimit:4;stroke-dasharray:2, 1;stroke-dashoffset:0;stroke-opacity:1" d="m 11,8.0003706 0,4.0000004 2,0 0,-4.0000004 -2,0 z m 0,5.0000004 0,2 2,0 0,-2 -2,0 z" id="rect4365"/>
</svg>

<?xml version="1.0" encoding="UTF-8" standalone="no"?>
<svg id="svg2817" xmlns:rdf="http://www.w3.org/1999/02/22-rdf-syntax-ns#" xmlns="http://www.w3.org/2000/svg" height="24" width="24" version="1.0" xmlns:cc="http://creativecommons.org/ns#" xmlns:dc="http://purl.org/dc/elements/1.1/">
 <metadata id="metadata57">
  <rdf:RDF>
   <cc:Work rdf:about="">
    <dc:format>image/svg+xml</dc:format>
    <dc:type rdf:resource="http://purl.org/dc/dcmitype/StillImage"/>
    <dc:title/>
   </cc:Work>
  </rdf:RDF>
 </metadata>
 <g id="g4486" transform="matrix(.046206 0 0 .045375 3.8524 3.9993)" fill="#fff">
  <path id="path4448" d="m7.9238 0.013672-6.7695 1.9863c-0.0924 0.032-0.1543 0.4741-0.1543 0.5703 0 2.372 0.6393 5.1146 1.7539 7.5237 0.9041 1.954 2.53 4.56 5.1406 5.881 0.0333 0.016 0.0692 0.025 0.1055 0.025s0.0722-0.009 0.1055-0.025c2.6105-1.321 4.2365-3.927 5.1405-5.881 1.115-2.4093 1.754-5.152 1.754-7.5237 0-0.0962-0.062-0.5383-0.154-0.5703l-6.7698-1.9863c-0.049718-0.017242-0.10263-0.017242-0.15234 0zm0.03125 2.9941c0.02841-0.0097 0.059481-0.0097 0.087891 0l3.8691 1.3184c0.053 0.018 0.088 0.065 0.088 0.1191 0 1.3341-0.365 2.8774-1.002 4.2324-0.517 1.0991-1.4458 2.5653-2.9375 3.3083-0.0189 0.01-0.0397 0.014-0.0605 0.014s-0.0416-0.004-0.0605-0.014c-1.4918-0.742-2.4209-2.209-2.9375-3.3083-0.637-1.3549-1.002-2.8981-1.002-4.2324 0-0.0541 0.0351-0.1011 0.0879-0.1191l3.8672-1.3184z" transform="matrix(21.642 0 0 22.04 3.1948 -.0000010886)" fill="#fff"/>
 </g>
 <path id="rect4365" d="m11 8.0004v4h2v-4h-2zm0 5v2h2v-2h-2z" fill="#5294e2"/>
</svg>
